X:1
T:I Don't Know How to Love Him
T:I Don't Know How to Love Him
T:From Jesus Christ Superstar
T:Andrew Lloyd Webber
T:Tim Rice
C:Andrew Lloyd Webber
Z:Tim Rice
L:1/8
M:4/4
K:D
V:1 treble nm="Piano" snm="Pno."
V:1
"D" F4"G" G"D"FED |"G" B4"D" A4 |"G" z2 GF"G6" E2"G" FG |"D/A" F4"A" E2 CB, |"D/F#" A,4"A" z FFE | %5
w: I don't know how to|love him|What to do, how to|move him I've been|changed, yes real- ly|
w: |||||
"D" A,4-"A" A, z FG |"F#m7" A3 A"Bm" D2- D/>E/D |"F#m7" A3 A"Bm" D3 D | %8
w: changed * In these|past few days, * when I've|seen my- self I|
w: |||
"G" G2"D/F#" F2"Em" E2"D" D2 |"A9sus4" E6"A" z2 |"D" F4"G" G"D"FED |"G" B4"D" A4 | %12
w: seem like some- one|else|I don't know how to|take this|
w: ||||
"G" z2 GF"G6" E2"G" FG |"D/A" F4"A" E2 CB, |"D/F#" A,4"A" z FFE |"D" A,4-"A" A, z FG | %16
w: I don't see why he|moves me He's a|man. He's just a|man * And I've|
w: ||||
"F#m7" A3 A"Bm" D<D- D2 |"F#m7" A3 A D3 D |"C" G2"D/F#" F2"Em" E2"D" D2 | %19
w: had so man- y *|men be- fore In|ve- ry man- y|
w: |||
"A9sus4" E4"A" z"G" D"D/F#"D"Em7"D |"D" D6 z2 |:"G" z2 DD B, D2 E- |"F#7" E2 EE C E2 F- | %23
w: ways He's just one|more|Should I bring him down?|* Should I scream and shout?|
w: ||||
"Bm" F2 FF"Bm/A" D F2 G- |"G" G2 GG F G2 A |"D/A" AAAA"C" =c c3 |"G" B2 GA-"D" A4 | %27
w: * Should I speak of love|* Let my feel- ings out?|* I nev- er thought I'd|come to this *|
w: ||||
"G" G2 F2"D/F#" E3 D |"Em" E8- |"A9sus4" E4-"A" E z z2 |"D" F3 F"G" G"D"FED |"G" B4"D" A4 | %32
w: What's it all a-|bout?||Don't you think it's ra- ther|fun- ny|
w: |||Yet, * if he said he|loved me|
"G" z2 GF"G6" EE"G"FG |"D/A" F4"A" E2 C>B, |"D/F#" A,4"A" z FFE |"D" A,4-"A" A, z z F | %36
w: I should be in this po-|si- tion? I'm the|one who's al- ways|been * So|
w: I'd be lost. * I'd be|fright- ened Icould- n't|cope, just could- n't|cope * I'd|
"F#m7" A3 A"Bm7" D4 |"F#m7" z ABA"Bm7" D4 |"G" G2"D/F#" F2"Em" E2"D" D2 | %39
w: calm, so cool,|no lov- er's fool|Run- ning ev- 'ry|
w: turn my head.|I'd back a- way|Iwould- n't want to|
"A9sus4" E4"A" z"G" D"D/F#"D"Em7"D |2"D" D6- D z ||2"D" D4"G" z F"D/F#"E"Em7"D || %42
w: show He scares me|so *||
w: know He scares me|so *|so I want him|
"D" D4"G" z D"D/F#"D"Em7"D |"D" D6 z2 :| %44
w: ||
w: so I love him|so.|

